X:579
T:The Physical Snob
C:Unidentified source, c.1800
S:Colin Hume's website,  colinhume.com  - chords can also be printed below the stave.
Q:3/8=120
M:9/8
L:1/8
K:F
P:A
|:C | "F"FCF AFA cAc | "F"fgf fcf "C"e2c | "Bb"ded def "Gm"gab | "F"fgf "C7"ece "F"f2 :|
P:B
|: A/B/ | "F"cAF cAF "C"GAB | "F"cAF cAF "Eb"GAB | "F"cAF cAF "C"GAB | "Bb"dBd "C7"ece "F"f2 :|
P:C
|: c | "F"fcf fga "C"gec | "F"fcf "Dm"fga "C"g2c | "F"fcf fga "C"gec | "Bb"dbg "C7"ece "F"f2 :|

